X: 9241
T: Dan Jeremiah's
R: slide
M: 12/8
K: Dmajor
|:F2A dBA B2A F2A|B2E EDE F2E D3|
DFA dBA B2A F2A|1 Bcd efe d3 d2A:|2 Bcd efe d3 d2B||
|:A2d dcd B2A F2A|B3 BAB c2A F2G|
A2d dcd B2A F2A|1 Bcd efe d3 d2B:|2 Bcd efe d3 d2A||

